X:1
T:Title
%%score ( 1 2 ) { 3 | 4 }
L:1/8
Q:1/4=103
M:4/4
K:A
V:1 treble nm="Grand Piano, Soprano"
V:2 treble 
V:3 bass nm="Choir Pad, Magnificence (Everett) 1901"
V:4 bass 
V:1
 [CE]2 [CA]2- [CA][CE] [Ec]>[DB] | [CA]>[EG] [DF]6 | [DF]2 [CE]2- [CE][CE] [CE]2 | [B,D]2 [A,C]6 | %4
w: By~Asa~Brooks~Everett~(1828–1875) * * * * *||||
 [CE]2 [CA]2- [CA][CE] [Ec]>[DB] | [CA]>[EG] [DF]6 | [DF]2 [CE]2- [CE][CE] [B,E]2 | .F2 z2 z4 | %8
w: ||||
 [EA]2 [EG]2- [EG][EA] [EB]2 | [EG]2 [EA]2- [EA][EB] [Ec]2 | [Ae]2 [Ae]2 [Ac]2 [Ac]2 | %11
w: |||
 [FB]2 [EA]4 [EG]2- | [EG]2 [EA]6- | [EA]2 z2 z4 |] %14
w: |||
V:2
 x8 | x8 | x8 | x8 | x8 | x8 | x8 | D-[DG] [CA]6 | x8 | x8 | x8 | x8 | x8 | x8 |] %14
V:3
 A,2 E,2- E,A, A,>A, | A,>A, A,6 | A,2 A,2- A,A, A,2 | E,2 E,6 | E,2 E,2- E,A, A,>A, | A,>A, A,6 | %6
 A,2 A,2- A,A, G,2 | B,2 A,6 | C2 B,2- B,[K:treble]C D2 | B,2 C2- CD E2 | C2 C2 E2 E2 | %11
 D2 C4 B,2- | B,2 C6- | C2 z2 z4 |] %14
V:4
 A,,2 A,,2- A,,A,, A,,>A,, | A,,>C, D,6 | D,2 E,2- E,E, E,2 | z2 A,,6 | A,,2 A,,2- A,,A,, A,,>A,, | %5
 A,,>C, D,6 | D,2 E,2- E,E, E,2 | E,2 A,,6 | [A,,A,]2 E,2- E,E, E,2 | E,2 A,2- A,A, A,2 | %10
 A,2 A,2 A,2 A,2 | D,2 E,4 E,2- | E,2 [A,,A,]6- | [A,,A,]2 z2 z4 |] %14

